public/icons/design-consult.svg

<svg xmlns="http://www.w3.org/2000/svg" fill="currentColor" viewBox="0 0 36 36"><path d="M9 17.41V27h9.59l-2-2H11v-5.59z" class="clr-i-outline clr-i-outline-path-1"/><path d="M34.87 32.29 32 29.38V32H4v-4.15h2v-1.6H4V19.6h2V18H4v-6.4h2V10H4V4.41l15.94 15.85v-2.82L3.71 1.29A1 1 0 0 0 2 2v31a1 1 0 0 0 1 1h31.16a1 1 0 0 0 .71-1.71" class="clr-i-outline clr-i-outline-path-2"/><path d="M24 30h4a2 2 0 0 0 2-2V8.7l-2.3-4.23a2 2 0 0 0-1.76-1 2 2 0 0 0-1.76 1.08L22 8.72V28a2 2 0 0 0 2 2m0-20.8 1.94-3.77L28 9.21V24h-4Zm0 16.43h4v2.44h-4Z" class="clr-i-outline clr-i-outline-path-3"/><path fill="none" d="M0 0h36v36H0z"/></svg>

<svg xmlns="http://www.w3.org/2000/svg" xmlns:xlink="http://www.w3.org/1999/xlink" fill="currentColor" version="1.1" preserveAspectRatio="xMidYMid meet" viewBox="0 0 36 36">  <polygon class="clr-i-outline clr-i-outline-path-1" points="9 17.41 9 27 18.59 27 16.59 25 11 25 11 19.41 9 17.41"></polygon><path class="clr-i-outline clr-i-outline-path-2" d="M34.87,32.29,32,29.38V32H4V27.85H6v-1.6H4V19.6H6V18H4V11.6H6V10H4V4.41L19.94,20.26V17.44L3.71,1.29A1,1,0,0,0,2,2V33a1,1,0,0,0,1,1H34.16a1,1,0,0,0,.71-1.71Z"></path><path class="clr-i-outline clr-i-outline-path-3" d="M24,30h4a2,2,0,0,0,2-2V8.7L27.7,4.47a2,2,0,0,0-1.76-1h0a2,2,0,0,0-1.76,1.08L22,8.72V28A2,2,0,0,0,24,30ZM24,9.2l1.94-3.77L28,9.21V24H24Zm0,16.43h4v2.44H24Z"></path>    <rect x="0" y="0" width="36" height="36" fill-opacity="0"></rect></svg>
